packages/ffe-icons/icons/open/300/md/other_houses.svg

<svg xmlns="http://www.w3.org/2000/svg" height="24" viewBox="0 -960 960 960" width="24"><path d="M180.001-212.309v-298.077l-50.77 39.462q-10.538 7.693-22.307 6.077-11.769-1.615-19.46-12.153-7.693-10.539-5.962-22.307 1.73-11.769 11.653-19.462L435.616-781.46q9.846-7.231 21.192-10.846T480-795.921q11.846 0 23 3.615t21 10.846l343.46 262.691q9.923 7.693 11.346 19.462 1.423 11.768-6.269 22.307-7.692 9.922-19.461 11.538-11.769 1.615-21.692-6.077l-51.385-38.847v298.077q0 29.923-21.193 51.115-21.192 21.193-51.115 21.193H252.309q-29.923 0-51.115-21.193-21.193-21.192-21.193-51.115ZM252.309-200h455.382q5.385 0 8.847-3.462 3.462-3.462 3.462-8.847V-556L487.308-733.23q-3.077-2.693-7.308-2.693t-7.308 2.693L240-556v343.691q0 5.385 3.462 8.847 3.462 3.462 8.847 3.462ZM320-364.616q14.692 0 25.038-10.346T355.384-400q0-14.692-10.346-25.038T320-435.384q-14.692 0-25.038 10.346T284.616-400q0 14.692 10.346 25.038T320-364.616Zm160 0q14.692 0 25.038-10.346T515.384-400q0-14.692-10.346-25.038T480-435.384q-14.692 0-25.038 10.346T444.616-400q0 14.692 10.346 25.038T480-364.616Zm160 0q14.692 0 25.038-10.346T675.384-400q0-14.692-10.346-25.038T640-435.384q-14.692 0-25.038 10.346T604.616-400q0 14.692 10.346 25.038T640-364.616ZM252.309-200H240h480H252.309Z"/></svg>

<svg xmlns="http://www.w3.org/2000/svg" height="24" viewBox="0 -960 960 960" width="24"><path d="M180-212.31v-298.08l-50.77 39.47q-10.54 7.69-22.31 6.07-11.76-1.61-19.46-12.15-7.69-10.54-5.96-22.31 1.73-11.77 11.66-19.46l342.46-262.69q9.84-7.23 21.19-10.85 11.34-3.61 23.19-3.61 11.85 0 23 3.61 11.15 3.62 21 10.85l343.46 262.69q9.92 7.69 11.35 19.46 1.42 11.77-6.27 22.31-7.7 9.92-19.46 11.54-11.77 1.61-21.7-6.08L780-510.39v298.08q0 29.92-21.19 51.12Q737.61-140 707.69-140H252.31q-29.92 0-51.12-21.19Q180-182.39 180-212.31ZM252.31-200h455.38q5.39 0 8.85-3.46t3.46-8.85V-556L487.31-733.23q-3.08-2.69-7.31-2.69-4.23 0-7.31 2.69L240-556v343.69q0 5.39 3.46 8.85t8.85 3.46ZM320-364.62q14.69 0 25.04-10.34 10.34-10.35 10.34-25.04t-10.34-25.04q-10.35-10.34-25.04-10.34t-25.04 10.34q-10.34 10.35-10.34 25.04t10.34 25.04q10.35 10.34 25.04 10.34Zm160 0q14.69 0 25.04-10.34 10.34-10.35 10.34-25.04t-10.34-25.04q-10.35-10.34-25.04-10.34t-25.04 10.34q-10.34 10.35-10.34 25.04t10.34 25.04q10.35 10.34 25.04 10.34Zm160 0q14.69 0 25.04-10.34 10.34-10.35 10.34-25.04t-10.34-25.04q-10.35-10.34-25.04-10.34t-25.04 10.34q-10.34 10.35-10.34 25.04t10.34 25.04q10.35 10.34 25.04 10.34ZM252.31-200H240h480-467.69Z"/></svg>
